X: 173
T: McGuires's 25th
T: Jig, E Dorian
L: 1/16
M: 6/8
K: E Dorian
|: B,2E2F2 G2F2E2| F2D2D2 A,2D2D2| B,2E2F2 G2F2E2| B6 A2F2D2| 
B,2E2F2 G2F2E2| F2D2D2 A,2D2D2| d2A2B2 A2F2D2| F2E2E2 E4D2:| 
|: b2e2e2 d2e2e2| c2e2e2 B2e2e2| f6 f2e2f2| a2b2a2 f2e2d2| 
b2e2e2 d2e2e2| c2e2e2 B2e2e2| f2a2e2 f2e2d2| g2e2e2 e6:| 
D: Glenn Graham/Rodney MacDonald, Traditionally Rockin', TR1
